Simply black circles/scalable/status/dialog-question.svg

<?xml version="1.0" encoding="UTF-8" standalone="no"?>
<!-- Created with Inkscape (http://www.inkscape.org/) -->

<svg
   xmlns:dc="http://purl.org/dc/elements/1.1/"
   xmlns:cc="http://creativecommons.org/ns#"
   xmlns:rdf="http://www.w3.org/1999/02/22-rdf-syntax-ns#"
   xmlns:svg="http://www.w3.org/2000/svg"
   xmlns="http://www.w3.org/2000/svg"
   xmlns:xlink="http://www.w3.org/1999/xlink"
   xmlns:sodipodi="http://sodipodi.sourceforge.net/DTD/sodipodi-0.dtd"
   xmlns:inkscape="http://www.inkscape.org/namespaces/inkscape"
   id="svg3334"
   width="24"
   height="24"
   version="1.0"
   sodipodi:docname="dialog-question.svg"
   inkscape:version="0.92.3 (2405546, 2018-03-11)">
  <metadata
     id="metadata40">
    <rdf:RDF>
      <cc:Work
         rdf:about="">
        <dc:format>image/svg+xml</dc:format>
        <dc:type
           rdf:resource="http://purl.org/dc/dcmitype/StillImage" />
        <dc:title></dc:title>
      </cc:Work>
    </rdf:RDF>
  </metadata>
  <sodipodi:namedview
     pagecolor="#ffffff"
     bordercolor="#666666"
     borderopacity="1"
     objecttolerance="10"
     gridtolerance="10"
     guidetolerance="10"
     inkscape:pageopacity="0"
     inkscape:pageshadow="2"
     inkscape:window-width="1366"
     inkscape:window-height="719"
     id="namedview38"
     showgrid="false"
     inkscape:zoom="22.166667"
     inkscape:cx="12"
     inkscape:cy="12"
     inkscape:window-x="0"
     inkscape:window-y="25"
     inkscape:window-maximized="1"
     inkscape:current-layer="svg3334"
     inkscape:snap-global="false"
     showguides="true"
     inkscape:guide-bbox="true" />
  <defs
     id="defs3336">
    <linearGradient
       id="linearGradient2877"
       x1="25.058001"
       x2="25.058001"
       y1="47.028"
       y2="39.999001"
       gradientUnits="userSpaceOnUse">
      <stop
         id="stop3704"
         style="stop-opacity:0"
         offset="0" />
      <stop
         id="stop3710"
         offset=".5" />
      <stop
         id="stop3706"
         style="stop-opacity:0"
         offset="1" />
    </linearGradient>
    <radialGradient
       id="radialGradient2875"
       cx="4.993"
       cy="43.5"
       r="2.5"
       gradientTransform="matrix(2.0038,0,0,1.4,-20.012,-104.4)"
       gradientUnits="userSpaceOnUse"
       xlink:href="#linearGradient3688" />
    <linearGradient
       id="linearGradient3688">
      <stop
         id="stop3690"
         offset="0" />
      <stop
         id="stop3692"
         style="stop-opacity:0"
         offset="1" />
    </linearGradient>
    <radialGradient
       id="radialGradient2873"
       cx="4.993"
       cy="43.5"
       r="2.5"
       gradientTransform="matrix(2.0038,0,0,1.4,27.988,-17.4)"
       gradientUnits="userSpaceOnUse"
       xlink:href="#linearGradient3688" />
    <linearGradient
       id="linearGradient2865"
       x1="24"
       x2="24"
       y1="44"
       y2="3.8989999"
       gradientTransform="translate(0,0.96744)"
       gradientUnits="userSpaceOnUse">
      <stop
         id="stop2492"
         style="stop-color:#791235"
         offset="0" />
      <stop
         id="stop2494"
         style="stop-color:#dd3b27"
         offset="1" />
    </linearGradient>
    <radialGradient
       id="radialGradient2863"
       cx="12.011"
       cy="10.424"
       r="20"
       gradientTransform="matrix(5.6342e-8,1.6801,-2.4235,1.0381e-8,44.478,-5.9267)"
       gradientUnits="userSpaceOnUse">
      <stop
         id="stop3244"
         style="stop-color:#f89b7e"
         offset="0" />
      <stop
         id="stop3246"
         style="stop-color:#e35d4f"
         offset=".26238" />
      <stop
         id="stop3248"
         style="stop-color:#c6262e"
         offset=".66094" />
      <stop
         id="stop3250"
         style="stop-color:#690b2c"
         offset="1" />
    </radialGradient>
    <linearGradient
       id="linearGradient2855"
       x1="24"
       x2="24"
       y1="5"
       y2="43"
       gradientTransform="translate(0,0.96744)"
       gradientUnits="userSpaceOnUse">
      <stop
         id="stop3310-1-4"
         style="stop-color:#fff"
         offset="0" />
      <stop
         id="stop3312-5-3"
         style="stop-color:#fff;stop-opacity:0"
         offset="1" />
    </linearGradient>
  </defs>
  <path
     style="opacity:1;fill:#165016;fill-opacity:1;stroke:none;stroke-width:1.55688596;stroke-miterlimit:4;stroke-dasharray:none;stroke-opacity:1"
     d="M 12 0.15820312 A 11.84323 11.84323 0 0 0 0.15625 12.001953 A 11.84323 11.84323 0 0 0 12 23.841797 A 11.84323 11.84323 0 0 0 23.84375 12.001953 A 11.84323 11.84323 0 0 0 12 0.15820312 z M 11.320312 1.9414062 L 1.8164062 11.445312 A 10.181907 10.181907 0 0 1 11.320312 1.9414062 z M 12.816406 1.9609375 A 10.181907 10.181907 0 0 1 22.107422 11.251953 L 12.816406 1.9609375 z M 12.111328 5.5429688 C 12.368109 5.5474447 12.623125 5.5670484 12.871094 5.5996094 C 14.634654 5.7578965 16.270668 6.8588397 16.298828 8.2636719 C 16.42784 9.7203671 15.206903 10.957615 13.939453 11.945312 C 12.739517 12.818678 12.454654 14.050232 12.490234 15.320312 C 12.081017 15.396016 11.546724 15.415083 11.521484 15.253906 C 11.489904 15.051949 11.535156 14.882013 11.535156 14.382812 C 11.531923 13.071543 12.337248 11.836967 13.087891 10.75 C 13.838591 9.6631162 14.361059 8.5474009 13.886719 7.8105469 C 13.412351 7.0738147 12.273288 6.4682686 11.132812 6.7421875 C 11.083868 6.753991 10.753121 6.8144844 10.435547 6.9980469 C 10.05549 7.2179555 9.7053694 7.7587135 9.7871094 8.0371094 C 9.8588554 8.2815203 9.9811194 8.5458993 9.9433594 8.8417969 C 9.8934464 9.2328538 9.5875803 9.6582031 8.9257812 9.6582031 C 7.7943413 9.6582031 7.4831765 8.3081886 7.8203125 7.5546875 C 8.4019775 6.1991345 10.31387 5.5104077 12.111328 5.5429688 z M 22.130859 12.455078 A 10.181907 10.181907 0 0 1 12.3125 22.273438 L 22.130859 12.455078 z M 1.8144531 12.876953 L 11.183594 22.246094 A 10.181907 10.181907 0 0 1 1.8144531 12.876953 z M 11.970703 17.03125 C 12.875965 17.018509 13.579407 17.900225 13.287109 18.666016 C 13.005933 19.650498 11.364365 19.865717 10.779297 18.996094 C 10.124171 18.208444 10.880197 16.97223 11.970703 17.03125 z "
     id="rect866" />
</svg>

<svg xmlns="http://www.w3.org/2000/svg" width="24" height="24" version="1"><defs><linearGradient id="a"><stop offset="0"/><stop offset="1" stop-opacity="0"/></linearGradient></defs><path d="M12 .158A11.843 11.843 0 0 0 .156 12.002 11.843 11.843 0 0 0 12 23.842a11.843 11.843 0 0 0 11.844-11.84A11.843 11.843 0 0 0 12 .158zm-.68 1.783l-9.504 9.504a10.182 10.182 0 0 1 9.504-9.504zm1.496.02a10.182 10.182 0 0 1 9.291 9.291l-9.29-9.291zm-.705 3.582c.257.004.512.024.76.057 1.764.158 3.4 1.259 3.428 2.664.129 1.456-1.092 2.694-2.36 3.681-1.2.874-1.484 2.105-1.449 3.375-.409.076-.943.095-.969-.066-.031-.202.014-.372.014-.871-.003-1.311.802-2.546 1.553-3.633.75-1.087 1.273-2.203.799-2.94-.475-.736-1.614-1.342-2.754-1.068-.05.012-.38.072-.697.256-.38.22-.73.76-.649 1.04.072.244.194.508.156.804-.05.39-.355.816-1.017.816-1.132 0-1.443-1.35-1.106-2.103.582-1.356 2.494-2.045 4.291-2.012zm10.02 6.912a10.182 10.182 0 0 1-9.819 9.818l9.819-9.818zm-20.317.422l9.37 9.37a10.182 10.182 0 0 1-9.37-9.37zm10.157 4.154c.905-.012 1.608.87 1.316 1.635-.281.984-1.923 1.2-2.508.33-.655-.788.101-2.024 1.192-1.965z" fill="#165016"/></svg>
